common/src/main/resources/glyphs/expui/nodes/parameter.svg

<svg xmlns="http://www.w3.org/2000/svg" width="16" height="16" fill="#F78C6C" data-big="true" viewBox="0 0 24 24"><path d="M3 17v2h6v-2zM3 5v2h10V5zm10 16v-2h8v-2h-8v-2h-2v6zM7 9v2H3v2h4v2h2V9zm14 4v-2H11v2zm-6-4h2V7h4V5h-4V3h-2z"/></svg>

<!--
  - The MIT License (MIT)
  -
  - Copyright (c) 2015-2024 Elior "Mallowigi" Boukhobza
  -
  - Permission is hereby granted, free of charge, to any person obtaining a copy
  - of this software and associated documentation files (the "Software"), to deal
  - in the Software without restriction, including without limitation the rights
  - to use, copy, modify, merge, publish, distribute, sublicense, and/or sell
  - copies of the Software, and to permit persons to whom the Software is
  - furnished to do so, subject to the following conditions:
  -
  - The above copyright notice and this permission notice shall be included in all
  - copies or substantial portions of the Software.
  -
  - THE SOFTWARE IS PROVIDED "AS IS", WITHOUT WARRANTY OF ANY KIND, EXPRESS OR
  - IMPLIED, INCLUDING BUT NOT LIMITED TO THE WARRANTIES OF MERCHANTABILITY,
  - FITNESS FOR A PARTICULAR PURPOSE AND NONINFRINGEMENT. IN NO EVENT SHALL THE
  - AUTHORS OR COPYRIGHT HOLDERS BE LIABLE FOR ANY CLAIM, DAMAGES OR OTHER
  - LIABILITY, WHETHER IN AN ACTION OF CONTRACT, TORT OR OTHERWISE, ARISING FROM,
  - OUT OF OR IN CONNECTION WITH THE SOFTWARE OR THE USE OR OTHER DEALINGS IN THE
  - SOFTWARE.
  -->


<svg data-big="true" xmlns="http://www.w3.org/2000/svg" version="1.1" width="16px" height="16px" viewBox="0 0 24 24"
     fill="#F78C6C">
  <path
    d="M3,17V19H9V17H3M3,5V7H13V5H3M13,21V19H21V17H13V15H11V21H13M7,9V11H3V13H7V15H9V9H7M21,13V11H11V13H21M15,9H17V7H21V5H17V3H15V9Z"/>
</svg>
